X:1
T:Katherine Jaffray (Lochnagar)
M:4/4
L:1/4
K:F
 d d cd/2-f/2| d d D E| G G E D| C3 C/2C/2| F F G G| A- c d c| A c E E|\
 D2 z2|
